!!!COM: Music21
!!!OTL: Mazurca para Tareixa
!!!OMV: pezas_mazurcas_mazurca-para-tareixa_mazurca-para-tareixa-partitura.musicxml
**kern
*I"Bagpipes
*I'Bag
*clefG^2
*k[]
*M3/4
=1
!LO:TX:a:t=Moderato
4gg
8ggL
8ffJ
8aaL
8ffJ
=
8ggL
8ffJ
8eeL
8ffJ
8ggL
8aaJ
=
4bb
8aaL
8ggJ
8ffL
8aaJ
=
8ggL
8ffJ
2ee
=
4gg
8ggL
8ffJ
8aaL
8ffJ
=
8ggL
8ffJ
8eeL
8ffJ
8ggL
8aaJ
=
4bb
8aaL
8ggJ
8ffL
8ggJ
=
2.ee
!!linebreak:original
=||
*M3/4
!LO:TX:a:t=Moderato
4gg
8ggL
8ffJ
8aaL
8ffJ
=
8ggL
8ffJ
8eeL
8ffJ
8ggL
8aaJ
=
4bb
8aaL
8ggJ
8ffL
8aaJ
=
8ggL
8ffJ
2ee
=
4gg
8ggL
8ffJ
8aaL
8ffJ
=
8ggL
8ffJ
8eeL
8ffJ
8ggL
8aaJ
=
4bb
8aaL
8ggJ
8ffL
8ggJ
=
4ee
2ee
=||
4ccc
4aa
4ccc
!!linebreak:original
=
2bb
4gg
=
4aa
4ff
4aa
=
8cccL
8bbJ
2gg
=
4aa
8ffL
8aaJ
8aaL
8ffJ
=
4gg
8eeL
8ggJ
8bbL
8aaJ
=
4ff
8ddL
8eeJ
8ffL
8ggJ
=
4ff
2ee
=||
4ccc
4aa
4ccc
=
2bb
4gg
=
4aa
4ff
4aa
=
8cccL
8bbJ
2gg
!!linebreak:original
=
4aa
8ffL
8aaJ
8aaL
8ffJ
=
4gg
8eeL
8ggJ
8bbL
8aaJ
=
4ff
8ddL
8eeJ
8ffL
8ggJ
=
4ff
2ee
=||
8ffL
8ddJ
8ggL
8ffJ
8aaL
8ggJ
=
8cccL
8ggJ
4ee
4ee
=
8ffL
8ddJ
8bL
8ddJ
4ff
=
8cccL
8bbJ
8ggL
8bbJ
8aaL
8ggJ
=
8ffL
8ddJ
8ggL
8ffJ
8aaL
8ggJ
!!linebreak:original
=
8cccL
8ggJ
4ee
4ee
=
8ffL
8ddJ
8bL
8ddJ
8ggL
8ffJ
=
2.ee
=||
8ffL
8ddJ
8ggL
8ffJ
8aaL
8ggJ
=
8cccL
8ggJ
4ee
4ee
=
8ffL
8ddJ
8bL
8ddJ
4ff
=
8cccL
8bbJ
8ggL
8bbJ
8aaL
8ggJ
=
8ffL
8ddJ
8ggL
8ffJ
8aaL
8ggJ
=
8cccL
8ggJ
4ee
4ee
!!linebreak:original
=
8ffL
8ddJ
8bL
8ddJ
8ggL
8ffJ
=
2.ee
=||
*k[b-]
*F:
4aa
4ccc
4bb-
=
4aa
4cc
4ccc
=
4aa
2aa
=
4aa
4ccc
4bb-
=
4aa
4cc
4ccc
=
8bb-L
8aaJ
8ggL
8ffJ
8aaL
8ggJ
=
4ee
2ee
=||
*k[]
*C:
4aa
8bbL
8aaJ
8ggL
8ffJ
!!linebreak:original
=
8aaL
8ggJ
8eeL
8ggJ
8ffL
8eeJ
=
8ffL
8ddJ
8ffL
8aaJ
8ggL
8ffJ
=
8cccL
8ggJ
4ee
4ee
=
4bb
8bbL
8aaJ
8ggL
8ffJ
=
8aaL
8ggJ
8eeL
8ggJ
8ffL
8eeJ
=
8ffL
8ddJ
8ffL
8aaJ
8ggL
8ffJ
=
2.ee
=||
4aa
8bbL
8aaJ
8ggL
8ffJ
!!linebreak:original
=
8aaL
8ggJ
8eeL
8ggJ
8ffL
8eeJ
=
8ffL
8ddJ
8ffL
8aaJ
8ggL
8ffJ
=
8cccL
8ggJ
4ee
4ee
=
4bb
8bbL
8aaJ
8ggL
8ffJ
=
8aaL
8ggJ
8eeL
8ggJ
8ffL
8eeJ
=
8ffL
8ddJ
8ffL
8aaJ
8ggL
8ffJ
=
4ee
2ee
=||
*k[b-]
*F:
8ddL
8eeJ
8ccL
8eeJ
8ddL
8eeJ
=
4cc
2ff
!!linebreak:original
=
4bb-
8bb-L
8aaJ
8ggL
8bb-J
=
2.aa
==
*-
